react/assets/icons/extension.svg

<svg width="48px" height="48px" viewBox="0 0 24 24" fill="none" xmlns="http://www.w3.org/2000/svg" aria-labelledby="extensionIconTitle" stroke-linecap="square" stroke-linejoin="miter"> <title id="extensionIconTitle">Extension</title> <path d="M9 4C9 2.89543 9.89543 2 11 2C12.1046 2 13 2.89543 13 4V6H18V11H20C21.1046 11 22 11.8954 22 13C22 14.1046 21.1046 15 20 15H18V20H13V18C13 16.8954 12.1046 16 11 16C9.89543 16 9 16.8954 9 18V20H4V15H6C7.10457 15 8 14.1046 8 13C8 11.8954 7.10457 11 6 11H4V6H9V4Z"/> </svg>

<svg width="48" height="48" viewBox="0 0 24 24" fill="none" xmlns="http://www.w3.org/2000/svg" aria-labelledby="extensionIconTitle" stroke-linecap="square"><path d="M9 4a2 2 0 114 0v2h5v5h2a2 2 0 110 4h-2v5h-5v-2a2 2 0 10-4 0v2H4v-5h2a2 2 0 100-4H4V6h5V4z"/></svg>
